assets/icons/emergency_no.svg

<svg fill="none" height="25" viewBox="0 0 25 25" width="25"><path clip-rule="evenodd" d="m6.802 6.585c.116-1.374 1.176-2.585 2.498-2.585h6.4c1.322 0 2.382 1.211 2.498 2.585l.001.006.769 10.453a2.508 2.508 0 0 1 2.032 2.456v.5c0 .264-.09.522-.284.716a.999.999 0 0 1 -.716.284h-15a.999.999 0 0 1 -.716-.284.999.999 0 0 1 -.284-.716v-.5c0-1.216.878-2.236 2.032-2.456l.769-10.453zm-1.802 12.915c0-.824.676-1.5 1.5-1.5h12c.824 0 1.5.676 1.5 1.5v.5h-15zm10-6a2.508 2.508 0 0 1 -2 2.45v1.05h4.962l-.76-10.333c-.085-.988-.824-1.667-1.502-1.667h-6.4c-.678 0-1.417.679-1.502 1.667l-.76 10.333h4.962v-1.05a2.508 2.508 0 0 1 -2-2.45c0-1.376 1.124-2.5 2.5-2.5s2.5 1.124 2.5 2.5zm-1 0c0 .824-.676 1.5-1.5 1.5s-1.5-.676-1.5-1.5.676-1.5 1.5-1.5 1.5.676 1.5 1.5z" fill="#18303f" fill-rule="evenodd"/></svg>

<svg width="25" height="25" viewBox="0 0 25 25" fill="none"><g id="emergency_no"><path id="iconDefault" fill-rule="evenodd" clip-rule="evenodd" d="M6.802 6.585C6.918 5.211 7.978 4 9.3 4h6.4c1.322 0 2.382 1.211 2.498 2.585l.001.006.769 10.453A2.508 2.508 0 0 1 21 19.5v.5c0 .264-.09.522-.284.716A.999.999 0 0 1 20 21H5a.999.999 0 0 1-.716-.284A.999.999 0 0 1 4 20v-.5c0-1.216.878-2.236 2.032-2.456l.769-10.453.001-.006ZM5 19.5c0-.824.676-1.5 1.5-1.5h12c.824 0 1.5.676 1.5 1.5v.5H5v-.5Zm10-6a2.508 2.508 0 0 1-2 2.45V17h4.962l-.76-10.333C17.117 5.679 16.378 5 15.7 5H9.3c-.678 0-1.417.679-1.502 1.667L7.038 17H12v-1.05a2.508 2.508 0 0 1-2-2.45c0-1.376 1.124-2.5 2.5-2.5s2.5 1.124 2.5 2.5Zm-1 0c0 .824-.676 1.5-1.5 1.5s-1.5-.676-1.5-1.5.676-1.5 1.5-1.5 1.5.676 1.5 1.5Z" fill="#18303F"/></g></svg>
